X:1
T:The Dockyard Gate
M:4/4
L:1/8
K:D
F-E| D2 F2F-E D2|G-A B2 B-c/2-B/2 AF| D3 B, C2D-E| D6| FG| A2 F2 A2 Bc|\
 d2 c-d/2-c/2 B2A-F| D2 D2D-F A2| A6| FG| A2 F2 A2 Bc| d2 c2d/2-c/2 BA F|\
 D2 D2D-F A2| A6|F-E| D2 F2F-E D2|G-A B2 B2A-F| D2 FE D2 D2| D6||
